svgs/solid/octagon-divide.svg

<svg xmlns="http://www.w3.org/2000/svg" viewBox="0 0 512 512"><!--! Font Awesome Pro 6.5.1 by @fontawesome - https://fontawesome.com License - https://fontawesome.com/license (Commercial License) Copyright 2023 Fonticons, Inc. --><path d="M140.6 21.2C154.1 7.7 172.4 .1 191.5 .1h129c19.1 0 37.4 7.6 50.9 21.1L490.8 140.6c13.5 13.5 21.1 31.8 21.1 50.9v129c0 19.1-7.6 37.4-21.1 50.9L371.4 490.8c-13.5 13.5-31.8 21.1-50.9 21.1h-129c-19.1 0-37.4-7.6-50.9-21.1L21.2 371.4C7.7 357.9 .1 339.6 .1 320.5v-129c0-19.1 7.6-37.4 21.1-50.9L140.6 21.2zM256 192a32 32 0 1 0 0-64 32 32 0 1 0 0 64zm-88 40c-13.3 0-24 10.7-24 24s10.7 24 24 24H344c13.3 0 24-10.7 24-24s-10.7-24-24-24H168zM288 352a32 32 0 1 0 -64 0 32 32 0 1 0 64 0z"/></svg>

<svg xmlns="http://www.w3.org/2000/svg" viewBox="0 0 512 512"><!--! Font Awesome Pro 6.1.1 by @fontawesome - https://fontawesome.com License - https://fontawesome.com/license (Commercial License) Copyright 2022 Fonticons, Inc. --><path d="M140.6 21.15C154.1 7.648 172.4 .0625 191.5 .0625H320.5C339.6 .0625 357.9 7.648 371.4 21.15L490.8 140.6C504.3 154.1 511.9 172.4 511.9 191.5V320.5C511.9 339.6 504.3 357.9 490.8 371.4L371.4 490.8C357.9 504.3 339.6 511.9 320.5 511.9H191.5C172.4 511.9 154.1 504.3 140.6 490.8L21.15 371.4C7.652 357.9 .0666 339.6 .0666 320.5V191.5C.0666 172.4 7.652 154.1 21.15 140.6L140.6 21.15zM256 191.1C273.7 191.1 288 177.7 288 159.1C288 142.3 273.7 127.1 256 127.1C238.3 127.1 224 142.3 224 159.1C224 177.7 238.3 191.1 256 191.1zM168 231.1C154.7 231.1 144 242.7 144 255.1C144 269.3 154.7 279.1 168 279.1H344C357.3 279.1 368 269.3 368 255.1C368 242.7 357.3 231.1 344 231.1H168zM256 319.1C238.3 319.1 224 334.3 224 351.1C224 369.7 238.3 383.1 256 383.1C273.7 383.1 288 369.7 288 351.1C288 334.3 273.7 319.1 256 319.1z"/></svg>
